X: 1
T: Muirsheen Durkin
M: 2/4
L: 1/8
R: polka
K: Dmaj
|: E | FF ED | EA AB | cA GE | FD- D2 |
F>F ED | EA AB | cA Bc | d2- dA |
d>d ed | cA A>B | c>A GE | FD D2 |
FG/F/ E>D | EA AB | cA G/F/E | D2- D2  |
FF ED | EA- AB | c<A GE | FD- DD/E/ |
F>F ED | EA AA/B/ | c/B/A Bc | d2- d (3A/B/c/ |
dc/d/ ed | cA A2 | c>A G/F/E/G/ | FD- DD/E/ |
FF/F/ ED | EA/A/ AB | cA GE | D2- D :|
K: Gmaj
|: A | BB AG | Ad d>e | fd cA | BG- GG/A/ |
B/c/B/A/ BG | Ad- d>e | fd ef | g2 de/f/ |
gf/g/ a>g | fd- d>e | fd c/B/A/c/ | BG- G2 |
Bc/B/ AG | Ad de | fd cA | G2- G :|
